badges/rephonic-light.svg

<svg width="124" height="40" viewBox="0 0 124 40" fill="none" xmlns="http://www.w3.org/2000/svg">
<rect x="0.5" y="0.5" width="123" height="39" rx="4.5" fill="white"/>
<path d="M10.525 29.475C8.685 27.635 8 24.635 8 20C8 15.365 8.685 12.365 10.525 10.525C12.365 8.685 15.365 8 20 8C24.635 8 27.635 8.685 29.475 10.525C31.315 12.365 32 15.365 32 20C32 24.635 31.315 27.635 29.475 29.475C27.635 31.315 24.635 32 20 32C15.365 32 12.365 31.315 10.525 29.475Z" fill="white"/>
<path d="M20 25.4944C15.0358 25.4944 11 23.5996 11 21.2312V24.7175C11 27.1049 15.0358 28.9996 20 28.9996C24.9642 28.9996 29 27.1049 29 24.7365V21.2312C29 23.5996 24.9642 25.5133 20 25.5133V25.4944Z" fill="#00A3FF"/>
<path d="M27.0105 23.9028C24.32 26.9912 19.3368 28.0712 15.5474 28.4502C16.9894 28.8213 18.4731 29.006 19.9621 28.9996C24.9452 28.9996 29 27.1049 29 24.7175V21.2312C29 22.2354 28.2421 23.1828 27.0105 23.9028Z" fill="#35E4EA"/>
<path d="M20 25.5891C24.9705 25.5891 29 23.6804 29 21.3259C29 18.9714 24.9705 17.0627 20 17.0627C15.0294 17.0627 11 18.9714 11 21.3259C11 23.6804 15.0294 25.5891 20 25.5891Z" fill="#BCD354"/>
<path d="M16.8547 11.8522C15.7178 11.189 14.7894 11.7385 14.7894 13.0458V22.7848C14.7894 24.1111 15.7178 24.6416 16.8547 23.9785L25.3052 19.109C26.442 18.4458 26.442 17.3848 25.3052 16.7216L16.8547 11.8522Z" fill="#00A3FF"/>
<path d="M39.7486 14.5V8.31818H40.4972V13.8359H43.3707V14.5H39.7486ZM44.4332 14.5V9.86364H45.1456V14.5H44.4332ZM44.7955 9.09091C44.6566 9.09091 44.5369 9.04362 44.4363 8.94904C44.3377 8.85446 44.2884 8.74077 44.2884 8.60795C44.2884 8.47514 44.3377 8.36145 44.4363 8.26687C44.5369 8.17229 44.6566 8.125 44.7955 8.125C44.9343 8.125 45.053 8.17229 45.1516 8.26687C45.2522 8.36145 45.3026 8.47514 45.3026 8.60795C45.3026 8.74077 45.2522 8.85446 45.1516 8.94904C45.053 9.04362 44.9343 9.09091 44.7955 9.09091ZM49.7344 10.902L49.0945 11.0831C49.0543 10.9764 48.9949 10.8728 48.9164 10.7722C48.8399 10.6696 48.7353 10.585 48.6025 10.5186C48.4697 10.4522 48.2996 10.419 48.0924 10.419C47.8086 10.419 47.5722 10.4844 47.383 10.6152C47.1959 10.744 47.1023 10.908 47.1023 11.1072C47.1023 11.2843 47.1667 11.4242 47.2955 11.5268C47.4243 11.6294 47.6255 11.715 47.8992 11.7834L48.5874 11.9524C49.0019 12.053 49.3108 12.207 49.5141 12.4142C49.7173 12.6195 49.8189 12.8841 49.8189 13.2081C49.8189 13.4737 49.7425 13.7112 49.5895 13.9205C49.4386 14.1297 49.2273 14.2947 48.9557 14.4155C48.684 14.5362 48.3681 14.5966 48.0079 14.5966C47.535 14.5966 47.1436 14.494 46.8337 14.2887C46.5238 14.0835 46.3276 13.7836 46.2451 13.3892L46.9212 13.2202C46.9856 13.4697 47.1073 13.6568 47.2864 13.7816C47.4676 13.9064 47.704 13.9688 47.9958 13.9688C48.3278 13.9688 48.5914 13.8983 48.7866 13.7575C48.9838 13.6146 49.0824 13.4435 49.0824 13.2443C49.0824 13.0833 49.0261 12.9485 48.9134 12.8398C48.8007 12.7292 48.6276 12.6467 48.3942 12.5923L47.6215 12.4112C47.1969 12.3106 46.885 12.1547 46.6858 11.9434C46.4886 11.7301 46.39 11.4634 46.39 11.1435C46.39 10.8819 46.4634 10.6504 46.6103 10.4492C46.7592 10.248 46.9615 10.09 47.217 9.97532C47.4746 9.86062 47.7664 9.80327 48.0924 9.80327C48.5512 9.80327 48.9114 9.90388 49.173 10.1051C49.4366 10.3063 49.6237 10.572 49.7344 10.902ZM52.9076 9.86364V10.4673H50.5049V9.86364H52.9076ZM51.2052 8.75284H51.9175V13.1719C51.9175 13.3731 51.9467 13.524 52.0051 13.6246C52.0654 13.7232 52.1419 13.7897 52.2345 13.8239C52.329 13.8561 52.4287 13.8722 52.5333 13.8722C52.6118 13.8722 52.6762 13.8681 52.7265 13.8601C52.7768 13.85 52.817 13.842 52.8472 13.8359L52.9921 14.4759C52.9438 14.494 52.8764 14.5121 52.7899 14.5302C52.7033 14.5503 52.5937 14.5604 52.4608 14.5604C52.2596 14.5604 52.0624 14.5171 51.8692 14.4306C51.6781 14.344 51.5191 14.2122 51.3923 14.0352C51.2675 13.8581 51.2052 13.6347 51.2052 13.3651V8.75284ZM55.8732 14.5966C55.4265 14.5966 55.0411 14.498 54.7172 14.3008C54.3952 14.1016 54.1467 13.8239 53.9716 13.4677C53.7985 13.1095 53.712 12.6929 53.712 12.218C53.712 11.7431 53.7985 11.3246 53.9716 10.9624C54.1467 10.5981 54.3902 10.3144 54.7021 10.1112C55.016 9.90589 55.3822 9.80327 55.8008 9.80327C56.0423 9.80327 56.2807 9.84351 56.5162 9.92401C56.7516 10.0045 56.9659 10.1353 57.1591 10.3164C57.3523 10.4955 57.5062 10.733 57.6209 11.0288C57.7356 11.3246 57.793 11.6888 57.793 12.1214V12.4233H54.2191V11.8075H57.0685C57.0685 11.5459 57.0162 11.3125 56.9116 11.1072C56.8089 10.902 56.6621 10.74 56.4709 10.6213C56.2817 10.5025 56.0584 10.4432 55.8008 10.4432C55.517 10.4432 55.2715 10.5136 55.0643 10.6545C54.859 10.7933 54.7011 10.9744 54.5904 11.1978C54.4797 11.4212 54.4244 11.6606 54.4244 11.9162V12.3267C54.4244 12.6768 54.4847 12.9737 54.6055 13.2172C54.7282 13.4586 54.8983 13.6428 55.1156 13.7695C55.3329 13.8943 55.5855 13.9567 55.8732 13.9567C56.0604 13.9567 56.2294 13.9305 56.3803 13.8782C56.5333 13.8239 56.6651 13.7434 56.7757 13.6367C56.8864 13.5281 56.9719 13.3932 57.0323 13.2322L57.7205 13.4254C57.6481 13.6589 57.5263 13.8641 57.3553 14.0412C57.1842 14.2163 56.973 14.3531 56.7214 14.4517C56.4699 14.5483 56.1871 14.5966 55.8732 14.5966ZM59.589 11.7109V14.5H58.8766V9.86364H59.5648V10.5881H59.6252C59.7338 10.3526 59.8989 10.1635 60.1202 10.0206C60.3416 9.87571 60.6273 9.80327 60.9775 9.80327C61.2914 9.80327 61.5661 9.86766 61.8015 9.99645C62.0369 10.1232 62.2201 10.3164 62.3509 10.576C62.4817 10.8336 62.5471 11.1596 62.5471 11.554V14.5H61.8347V11.6023C61.8347 11.238 61.7401 10.9543 61.551 10.7511C61.3618 10.5458 61.1022 10.4432 60.7722 10.4432C60.5448 10.4432 60.3416 10.4925 60.1625 10.5911C59.9854 10.6897 59.8455 10.8336 59.7429 11.0227C59.6403 11.2119 59.589 11.4413 59.589 11.7109ZM68.1229 14.5966C67.7044 14.5966 67.3371 14.497 67.0212 14.2978C66.7073 14.0985 66.4618 13.8198 66.2847 13.4616C66.1096 13.1035 66.0221 12.6849 66.0221 12.206C66.0221 11.723 66.1096 11.3014 66.2847 10.9412C66.4618 10.581 66.7073 10.3013 67.0212 10.1021C67.3371 9.90288 67.7044 9.80327 68.1229 9.80327C68.5415 9.80327 68.9077 9.90288 69.2216 10.1021C69.5376 10.3013 69.7831 10.581 69.9581 10.9412C70.1352 11.3014 70.2238 11.723 70.2238 12.206C70.2238 12.6849 70.1352 13.1035 69.9581 13.4616C69.7831 13.8198 69.5376 14.0985 69.2216 14.2978C68.9077 14.497 68.5415 14.5966 68.1229 14.5966ZM68.1229 13.9567C68.4409 13.9567 68.7025 13.8752 68.9077 13.7122C69.113 13.5492 69.2649 13.3349 69.3635 13.0692C69.4621 12.8036 69.5114 12.5159 69.5114 12.206C69.5114 11.8961 69.4621 11.6073 69.3635 11.3397C69.2649 11.072 69.113 10.8557 68.9077 10.6907C68.7025 10.5257 68.4409 10.4432 68.1229 10.4432C67.805 10.4432 67.5434 10.5257 67.3381 10.6907C67.1329 10.8557 66.9809 11.072 66.8823 11.3397C66.7837 11.6073 66.7344 11.8961 66.7344 12.206C66.7344 12.5159 66.7837 12.8036 66.8823 13.0692C66.9809 13.3349 67.1329 13.5492 67.3381 13.7122C67.5434 13.8752 67.805 13.9567 68.1229 13.9567ZM72.0235 11.7109V14.5H71.3112V9.86364H71.9994V10.5881H72.0597C72.1684 10.3526 72.3334 10.1635 72.5548 10.0206C72.7761 9.87571 73.0619 9.80327 73.412 9.80327C73.7259 9.80327 74.0006 9.86766 74.2361 9.99645C74.4715 10.1232 74.6546 10.3164 74.7854 10.576C74.9162 10.8336 74.9816 11.1596 74.9816 11.554V14.5H74.2693V11.6023C74.2693 11.238 74.1747 10.9543 73.9855 10.7511C73.7964 10.5458 73.5368 10.4432 73.2068 10.4432C72.9794 10.4432 72.7761 10.4925 72.597 10.5911C72.42 10.6897 72.2801 10.8336 72.1775 11.0227C72.0748 11.2119 72.0235 11.4413 72.0235 11.7109Z" fill="black"/>
<path d="M39.5412 30.5V17.7727H43.8416C44.8359 17.7727 45.6521 17.9426 46.2901 18.2823C46.9281 18.6179 47.4005 19.0798 47.707 19.6681C48.0136 20.2565 48.1669 20.9255 48.1669 21.6754C48.1669 22.4253 48.0136 23.0903 47.707 23.6703C47.4005 24.2503 46.9302 24.706 46.2963 25.0375C45.6625 25.3648 44.8525 25.5284 43.8665 25.5284H40.3864V24.1364H43.8168C44.4962 24.1364 45.0431 24.0369 45.4574 23.8381C45.8758 23.6392 46.1783 23.3575 46.3647 22.9929C46.5553 22.6242 46.6506 22.185 46.6506 21.6754C46.6506 21.1658 46.5553 20.7205 46.3647 20.3393C46.1741 19.9582 45.8696 19.664 45.4512 19.4569C45.0327 19.2456 44.4796 19.1399 43.7919 19.1399H41.0824V30.5H39.5412ZM45.532 24.7827L48.6641 30.5H46.8743L43.7919 24.7827H45.532ZM54.1858 30.6989C53.266 30.6989 52.4726 30.4959 51.8056 30.0898C51.1427 29.6797 50.6311 29.108 50.2706 28.3746C49.9143 27.6372 49.7362 26.7796 49.7362 25.8018C49.7362 24.8241 49.9143 23.9624 50.2706 23.2166C50.6311 22.4667 51.1324 21.8826 51.7745 21.4641C52.4209 21.0415 53.1749 20.8303 54.0366 20.8303C54.5338 20.8303 55.0247 20.9131 55.5095 21.0788C55.9942 21.2446 56.4354 21.5138 56.8331 21.8867C57.2309 22.2554 57.5478 22.7443 57.784 23.3533C58.0201 23.9624 58.1382 24.7122 58.1382 25.603V26.2244H50.7802V24.9567H56.6467C56.6467 24.4181 56.539 23.9375 56.3236 23.5149C56.1123 23.0923 55.8098 22.7588 55.4162 22.5144C55.0268 22.2699 54.5669 22.1477 54.0366 22.1477C53.4525 22.1477 52.947 22.2927 52.5203 22.5827C52.0977 22.8686 51.7725 23.2415 51.5446 23.7013C51.3167 24.1612 51.2028 24.6542 51.2028 25.1804V26.0256C51.2028 26.7464 51.3271 27.3575 51.5757 27.8588C51.8284 28.356 52.1785 28.7351 52.6259 28.9961C53.0734 29.253 53.5933 29.3814 54.1858 29.3814C54.5711 29.3814 54.9191 29.3275 55.2298 29.2198C55.5447 29.108 55.816 28.9422 56.0439 28.7227C56.2718 28.4989 56.4478 28.2214 56.5721 27.8899L57.989 28.2876C57.8399 28.7682 57.5892 29.1908 57.2371 29.5554C56.8849 29.9158 56.4499 30.1976 55.932 30.4006C55.4142 30.5994 54.8321 30.6989 54.1858 30.6989ZM60.1192 34.0795V20.9545H61.5361V22.4709H61.7101C61.8178 22.3052 61.967 22.0939 62.1575 21.837C62.3523 21.576 62.6298 21.344 62.9903 21.141C63.3549 20.9338 63.8479 20.8303 64.4693 20.8303C65.2731 20.8303 65.9815 21.0312 66.5947 21.4331C67.2078 21.8349 67.6864 22.4046 68.0302 23.142C68.3741 23.8795 68.546 24.7495 68.546 25.7521C68.546 26.763 68.3741 27.6393 68.0302 28.3809C67.6864 29.1183 67.2099 29.69 66.6009 30.0961C65.9919 30.4979 65.2896 30.6989 64.4942 30.6989C63.881 30.6989 63.3901 30.5974 63.0214 30.3944C62.6526 30.1872 62.3688 29.9531 62.17 29.6921C61.9711 29.427 61.8178 29.2074 61.7101 29.0334H61.5858V34.0795H60.1192ZM61.5609 25.7273C61.5609 26.4482 61.6666 27.0841 61.8779 27.6351C62.0892 28.182 62.3978 28.6108 62.8038 28.9215C63.2099 29.2281 63.707 29.3814 64.2953 29.3814C64.9085 29.3814 65.4201 29.2198 65.8303 28.8967C66.2446 28.5694 66.5553 28.1302 66.7625 27.5792C66.9738 27.024 67.0794 26.4067 67.0794 25.7273C67.0794 25.0561 66.9758 24.4512 66.7687 23.9126C66.5657 23.3699 66.257 22.9411 65.8427 22.6262C65.4326 22.3072 64.9168 22.1477 64.2953 22.1477C63.6987 22.1477 63.1974 22.2989 62.7914 22.6014C62.3854 22.8997 62.0788 23.3181 61.8717 23.8567C61.6645 24.3912 61.5609 25.0147 61.5609 25.7273ZM71.9999 24.7578V30.5H70.5332V17.7727H71.9999V22.446H72.1242C72.3479 21.953 72.6835 21.5615 73.1309 21.2715C73.5825 20.9773 74.1832 20.8303 74.9331 20.8303C75.5836 20.8303 76.1532 20.9608 76.6421 21.2218C77.131 21.4786 77.51 21.8743 77.7793 22.4087C78.0528 22.939 78.1895 23.6143 78.1895 24.4347V30.5H76.7229V24.5341C76.7229 23.7759 76.5261 23.1897 76.1325 22.7754C75.7431 22.3569 75.2024 22.1477 74.5105 22.1477C74.0299 22.1477 73.5991 22.2492 73.2179 22.4522C72.8409 22.6552 72.5426 22.9515 72.323 23.3409C72.1076 23.7303 71.9999 24.2027 71.9999 24.7578ZM84.5004 30.6989C83.6387 30.6989 82.8826 30.4938 82.2322 30.0836C81.5858 29.6735 81.0804 29.0997 80.7158 28.3622C80.3554 27.6248 80.1752 26.763 80.1752 25.777C80.1752 24.7827 80.3554 23.9147 80.7158 23.1731C81.0804 22.4315 81.5858 21.8556 82.2322 21.4455C82.8826 21.0353 83.6387 20.8303 84.5004 20.8303C85.3622 20.8303 86.1162 21.0353 86.7625 21.4455C87.413 21.8556 87.9184 22.4315 88.2789 23.1731C88.6434 23.9147 88.8257 24.7827 88.8257 25.777C88.8257 26.763 88.6434 27.6248 88.2789 28.3622C87.9184 29.0997 87.413 29.6735 86.7625 30.0836C86.1162 30.4938 85.3622 30.6989 84.5004 30.6989ZM84.5004 29.3814C85.155 29.3814 85.6936 29.2136 86.1162 28.878C86.5388 28.5424 86.8516 28.1012 87.0546 27.5543C87.2576 27.0075 87.3591 26.415 87.3591 25.777C87.3591 25.139 87.2576 24.5444 87.0546 23.9934C86.8516 23.4424 86.5388 22.997 86.1162 22.6573C85.6936 22.3176 85.155 22.1477 84.5004 22.1477C83.8459 22.1477 83.3073 22.3176 82.8847 22.6573C82.4621 22.997 82.1493 23.4424 81.9463 23.9934C81.7433 24.5444 81.6418 25.139 81.6418 25.777C81.6418 26.415 81.7433 27.0075 81.9463 27.5543C82.1493 28.1012 82.4621 28.5424 82.8847 28.878C83.3073 29.2136 83.8459 29.3814 84.5004 29.3814ZM92.2811 24.7578V30.5H90.8145V20.9545H92.2314V22.446H92.3557C92.5794 21.9613 92.9191 21.5719 93.3749 21.2777C93.8306 20.9794 94.4189 20.8303 95.1398 20.8303C95.7861 20.8303 96.3516 20.9628 96.8363 21.228C97.3211 21.489 97.6981 21.8867 97.9674 22.4212C98.2367 22.9515 98.3713 23.6226 98.3713 24.4347V30.5H96.9047V24.5341C96.9047 23.7842 96.71 23.2 96.3205 22.7816C95.9311 22.359 95.3966 22.1477 94.7172 22.1477C94.249 22.1477 93.8306 22.2492 93.4619 22.4522C93.0973 22.6552 92.8093 22.9515 92.5981 23.3409C92.3868 23.7303 92.2811 24.2027 92.2811 24.7578ZM100.801 30.5V20.9545H102.268V30.5H100.801ZM101.547 19.3636C101.261 19.3636 101.015 19.2663 100.808 19.0716C100.605 18.8768 100.503 18.6428 100.503 18.3693C100.503 18.0959 100.605 17.8618 100.808 17.6671C101.015 17.4724 101.261 17.375 101.547 17.375C101.833 17.375 102.077 17.4724 102.28 17.6671C102.488 17.8618 102.591 18.0959 102.591 18.3693C102.591 18.6428 102.488 18.8768 102.28 19.0716C102.077 19.2663 101.833 19.3636 101.547 19.3636ZM108.582 30.6989C107.687 30.6989 106.917 30.4876 106.27 30.065C105.624 29.6424 105.127 29.0603 104.779 28.3187C104.431 27.5771 104.257 26.7299 104.257 25.777C104.257 24.8075 104.435 23.952 104.791 23.2104C105.152 22.4647 105.653 21.8826 106.295 21.4641C106.941 21.0415 107.695 20.8303 108.557 20.8303C109.228 20.8303 109.833 20.9545 110.372 21.2031C110.91 21.4517 111.352 21.7997 111.695 22.2472C112.039 22.6946 112.253 23.2166 112.336 23.8132H110.869C110.757 23.3782 110.508 22.9929 110.123 22.6573C109.742 22.3176 109.228 22.1477 108.582 22.1477C108.01 22.1477 107.509 22.2969 107.078 22.5952C106.651 22.8893 106.318 23.3057 106.078 23.8443C105.841 24.3787 105.723 25.0064 105.723 25.7273C105.723 26.4647 105.839 27.1069 106.071 27.6538C106.307 28.2006 106.639 28.6253 107.066 28.9277C107.497 29.2302 108.002 29.3814 108.582 29.3814C108.963 29.3814 109.309 29.3151 109.62 29.1825C109.931 29.05 110.194 28.8594 110.409 28.6108C110.624 28.3622 110.778 28.0639 110.869 27.7159H112.336C112.253 28.2794 112.048 28.7869 111.72 29.2385C111.397 29.6859 110.968 30.0422 110.434 30.3074C109.904 30.5684 109.286 30.6989 108.582 30.6989Z" fill="black"/>
<rect x="0.5" y="0.5" width="123" height="39" rx="4.5" stroke="#A6A6A6"/>
</svg>

<svg xmlns="http://www.w3.org/2000/svg" width="124" height="40" fill="none" viewBox="0 0 124 40">
  <rect width="123" height="39" x=".5" y=".5" fill="#fff" rx="4.5"/>
  <rect width="123" height="39" x=".5" y=".5" stroke="#A6A6A6" rx="4.5"/>
  <path fill="#00A3FF" d="M20 26.944c-6.619 0-12-2.526-12-5.684v4.648c0 3.184 5.381 5.71 12 5.71s12-2.526 12-5.684V21.26c0 3.158-5.381 5.71-12 5.71v-.026Z"/>
  <path fill="#35E4EA" d="M29.347 24.822c-3.587 4.118-10.231 5.558-15.284 6.063 1.923.495 3.901.741 5.886.733 6.645 0 12.051-2.526 12.051-5.71V21.26c0 1.339-1.01 2.602-2.653 3.562Z"/>
  <path fill="#BCD354" d="M20 27.07c6.627 0 12-2.544 12-5.684 0-3.139-5.373-5.684-12-5.684S8 18.247 8 21.386c0 3.14 5.373 5.685 12 5.685Z"/>
  <path fill="#00A3FF" d="M15.806 8.755c-1.515-.884-2.753-.152-2.753 1.591v12.986c0 1.768 1.238 2.475 2.753 1.591l11.268-6.492c1.516-.885 1.516-2.3 0-3.184L15.806 8.755Z"/>
  <path fill="#000" d="M39.749 14.5V8.318h.748v5.518h2.874v.664h-3.622Zm4.684 0V9.864h.713V14.5h-.713Zm.362-5.41a.506.506 0 0 1-.359-.141.456.456 0 0 1-.148-.341c0-.133.05-.247.148-.341.1-.095.22-.142.36-.142.138 0 .257.047.356.142.1.094.15.208.15.341 0 .133-.05.246-.15.341a.496.496 0 0 1-.357.142Zm4.94 1.812-.64.181c-.04-.107-.1-.21-.179-.31a.865.865 0 0 0-.313-.254 1.14 1.14 0 0 0-.51-.1c-.284 0-.52.065-.71.196-.187.129-.28.293-.28.492a.51.51 0 0 0 .192.42c.13.102.33.188.604.256l.688.17c.415.1.724.254.927.461.203.206.305.47.305.794 0 .266-.077.503-.23.713-.15.209-.362.374-.633.495a2.33 2.33 0 0 1-.948.18c-.473 0-.864-.102-1.174-.307-.31-.205-.506-.505-.589-.9l.676-.169c.065.25.186.437.365.562.182.124.418.187.71.187.332 0 .595-.07.79-.211.198-.143.296-.314.296-.514a.54.54 0 0 0-.169-.404c-.112-.11-.285-.193-.519-.248l-.773-.18c-.424-.101-.736-.257-.935-.469a1.133 1.133 0 0 1-.296-.8c0-.261.073-.493.22-.694a1.5 1.5 0 0 1 .607-.474 2.13 2.13 0 0 1 .875-.172c.46 0 .82.1 1.081.302.264.201.45.467.561.797Zm3.173-1.038v.603h-2.403v-.603h2.403Zm-1.703-1.111h.712v4.419c0 .201.03.352.088.453.06.098.137.165.23.199a.92.92 0 0 0 .298.048c.079 0 .143-.004.194-.012l.12-.024.145.64a1.491 1.491 0 0 1-.531.085c-.201 0-.399-.044-.592-.13a1.177 1.177 0 0 1-.477-.396c-.125-.177-.187-.4-.187-.67V8.753Zm4.668 5.844c-.447 0-.832-.099-1.156-.296a1.99 1.99 0 0 1-.745-.833c-.174-.358-.26-.775-.26-1.25s.086-.893.26-1.256c.175-.364.418-.648.73-.85.314-.206.68-.309 1.099-.309.241 0 .48.04.715.121.236.08.45.211.643.392.193.18.347.417.462.713.115.296.172.66.172 1.092v.302h-3.574v-.616h2.85a1.52 1.52 0 0 0-.157-.7 1.183 1.183 0 0 0-.441-.486 1.234 1.234 0 0 0-.67-.178c-.284 0-.53.07-.737.212a1.39 1.39 0 0 0-.474.543c-.11.223-.166.463-.166.718v.41c0 .35.06.648.181.891.123.242.293.426.51.553.218.124.47.187.758.187.187 0 .356-.027.507-.079.153-.054.285-.135.396-.241.11-.109.196-.244.256-.405l.689.193a1.526 1.526 0 0 1-.366.616 1.78 1.78 0 0 1-.634.41 2.35 2.35 0 0 1-.848.146Zm3.716-2.886V14.5h-.712V9.864h.688v.724h.06a1.33 1.33 0 0 1 .495-.567c.222-.145.507-.218.858-.218.313 0 .588.065.823.193.236.127.42.32.55.58.13.258.196.584.196.978V14.5h-.712v-2.898c0-.364-.095-.648-.284-.85-.19-.206-.449-.309-.779-.309-.227 0-.43.05-.61.148a1.058 1.058 0 0 0-.42.432 1.43 1.43 0 0 0-.153.688Zm8.534 2.886c-.419 0-.786-.1-1.102-.3a2.018 2.018 0 0 1-.736-.835c-.175-.358-.263-.777-.263-1.256 0-.483.088-.905.263-1.265.177-.36.422-.64.736-.839.316-.2.683-.299 1.102-.299.418 0 .785.1 1.099.3.316.198.561.478.736.838.177.36.266.782.266 1.265 0 .479-.089.898-.266 1.256-.175.358-.42.636-.736.836a2.01 2.01 0 0 1-1.1.299Zm0-.64c.318 0 .58-.082.785-.245a1.44 1.44 0 0 0 .456-.643 2.47 2.47 0 0 0 .147-.863c0-.31-.049-.599-.147-.866a1.46 1.46 0 0 0-.456-.65c-.206-.164-.467-.247-.785-.247s-.58.083-.785.248a1.46 1.46 0 0 0-.456.649 2.487 2.487 0 0 0-.148.866c0 .31.05.598.148.863.099.266.25.48.456.643.205.163.467.245.785.245Zm3.9-2.246V14.5h-.712V9.864H72v.724h.06c.11-.235.274-.424.496-.567.221-.145.507-.218.857-.218.314 0 .589.065.824.193a1.3 1.3 0 0 1 .55.58c.13.258.196.584.196.978V14.5h-.713v-2.898c0-.364-.094-.648-.284-.85-.189-.206-.448-.309-.778-.309-.228 0-.43.05-.61.148a1.059 1.059 0 0 0-.42.432 1.43 1.43 0 0 0-.154.688ZM39.541 30.5V17.773h4.3c.995 0 1.811.17 2.45.51.637.335 1.11.797 1.416 1.385.307.588.46 1.258.46 2.007 0 .75-.153 1.415-.46 1.995-.306.58-.777 1.036-1.41 1.367-.634.328-1.444.491-2.43.491h-3.48v-1.392h3.43c.68 0 1.226-.1 1.64-.298.419-.199.721-.48.908-.845.19-.369.286-.808.286-1.318s-.096-.954-.286-1.336c-.19-.38-.495-.675-.914-.882-.418-.211-.971-.317-1.66-.317h-2.709V30.5h-1.54Zm5.991-5.717 3.132 5.717h-1.79l-3.082-5.717h1.74Zm8.654 5.916c-.92 0-1.713-.203-2.38-.61a4.087 4.087 0 0 1-1.535-1.714c-.357-.738-.535-1.595-.535-2.573s.178-1.84.535-2.585c.36-.75.861-1.334 1.504-1.753.646-.422 1.4-.634 2.262-.634.497 0 .988.083 1.473.249a3.65 3.65 0 0 1 1.323.808c.398.368.715.857.951 1.466.236.61.354 1.36.354 2.25v.621H50.78v-1.267h5.867a3.13 3.13 0 0 0-.323-1.442 2.435 2.435 0 0 0-.908-1c-.39-.245-.85-.367-1.38-.367-.584 0-1.089.145-1.516.435a2.862 2.862 0 0 0-.975 1.118c-.228.46-.342.953-.342 1.48v.845c0 .72.124 1.332.373 1.833a2.69 2.69 0 0 0 1.05 1.137c.447.257.967.385 1.56.385.385 0 .733-.053 1.044-.161.315-.112.586-.278.814-.497a2.26 2.26 0 0 0 .528-.833l1.417.398c-.15.48-.4.903-.752 1.267a3.67 3.67 0 0 1-1.305.846c-.518.198-1.1.298-1.746.298Zm5.933 3.38V20.955h1.417v1.517h.174c.108-.166.257-.377.447-.634.195-.261.473-.493.833-.696.365-.207.858-.31 1.48-.31.803 0 1.511.2 2.125.602.613.402 1.091.972 1.435 1.709.344.738.516 1.608.516 2.61 0 1.011-.172 1.887-.516 2.629-.344.737-.82 1.309-1.43 1.715-.608.402-1.31.603-2.106.603-.613 0-1.104-.102-1.473-.305-.368-.207-.652-.44-.851-.702a9.38 9.38 0 0 1-.46-.659h-.124v5.047h-1.467Zm1.442-8.352c0 .721.106 1.357.317 1.908.211.547.52.976.926 1.287.406.306.903.46 1.491.46.614 0 1.125-.162 1.535-.485.415-.328.725-.767.933-1.318a5.17 5.17 0 0 0 .316-1.852c0-.67-.103-1.276-.31-1.814-.203-.543-.512-.972-.926-1.287-.41-.319-.926-.478-1.548-.478-.596 0-1.098.15-1.504.453-.406.299-.712.717-.92 1.256-.207.534-.31 1.158-.31 1.87ZM72 24.757V30.5h-1.467V17.773H72v4.673h.124c.224-.493.56-.885 1.007-1.175.451-.294 1.052-.44 1.802-.44.65 0 1.22.13 1.71.39.488.258.867.653 1.136 1.188.274.53.41 1.205.41 2.026V30.5h-1.466v-5.966c0-.758-.197-1.344-.59-1.759-.39-.418-.93-.627-1.623-.627-.48 0-.91.101-1.292.304-.377.203-.675.5-.895.889-.215.39-.323.862-.323 1.417ZM84.5 30.7c-.861 0-1.617-.205-2.268-.615-.646-.41-1.152-.984-1.516-1.722-.36-.737-.54-1.599-.54-2.585 0-.994.18-1.862.54-2.604.364-.741.87-1.317 1.516-1.727.65-.41 1.407-.616 2.268-.616.862 0 1.616.205 2.263.616.65.41 1.155.985 1.516 1.727.364.742.547 1.61.547 2.604 0 .986-.183 1.848-.547 2.585-.36.738-.866 1.312-1.516 1.722-.647.41-1.4.615-2.263.615Zm0-1.318c.655 0 1.194-.167 1.616-.503.423-.336.736-.777.939-1.324a5.063 5.063 0 0 0 .304-1.777 5.12 5.12 0 0 0-.304-1.784 3.006 3.006 0 0 0-.939-1.336c-.422-.34-.961-.51-1.616-.51-.654 0-1.193.17-1.615.51-.423.34-.736.785-.939 1.336a5.12 5.12 0 0 0-.304 1.784c0 .638.101 1.23.304 1.777.203.547.516.988.939 1.324.422.336.96.503 1.615.503Zm7.781-4.623V30.5h-1.467v-9.546h1.417v1.492h.125a2.726 2.726 0 0 1 1.019-1.168c.456-.299 1.044-.448 1.765-.448.646 0 1.212.133 1.696.398.485.261.862.659 1.131 1.193.27.53.404 1.202.404 2.014V30.5h-1.466v-5.966c0-.75-.195-1.334-.585-1.752-.389-.423-.923-.634-1.603-.634-.468 0-.886.101-1.255.304-.365.203-.653.5-.864.889-.211.39-.317.862-.317 1.417Zm8.52 5.742v-9.546h1.467V30.5h-1.467Zm.746-11.136c-.286 0-.532-.098-.739-.292a.939.939 0 0 1-.305-.703.94.94 0 0 1 .305-.702c.207-.195.453-.292.739-.292s.53.097.733.292a.927.927 0 0 1 .311.702.927.927 0 0 1-.311.703 1.02 1.02 0 0 1-.733.292Zm7.035 11.335c-.895 0-1.665-.211-2.312-.634a4.137 4.137 0 0 1-1.491-1.746c-.348-.742-.522-1.59-.522-2.542 0-.97.178-1.825.534-2.567.361-.745.862-1.327 1.504-1.746.646-.422 1.4-.634 2.262-.634.671 0 1.276.125 1.815.373.538.249.98.597 1.323 1.044.344.448.558.97.641 1.566h-1.467c-.112-.435-.361-.82-.746-1.156-.381-.34-.895-.51-1.541-.51-.572 0-1.073.15-1.504.448-.427.294-.76.71-1 1.25-.237.534-.355 1.161-.355 1.882 0 .738.116 1.38.348 1.927.236.547.568.971.995 1.274.431.302.936.453 1.516.453a2.62 2.62 0 0 0 1.038-.198c.311-.133.574-.324.789-.572.215-.249.369-.547.46-.895h1.467a3.392 3.392 0 0 1-1.902 2.591c-.53.261-1.148.392-1.852.392Z"/>
</svg>
